X: 36
T: Zoushang haobi yigu feng
L: 1/8
M: 2/4
K: D
eB2A/ B/ [I:setbarnb 1]| 
eA2F | 
F E D B, | 
B4 | 
eB2A/ B/ | 
eA2F | 
F E D B, | 
E4 |]

@@@ Tune index: 8910
